assets/icons/qvision/location_off.svg

<svg xmlns="http://www.w3.org/2000/svg" height="24" viewBox="0 0 24 24" width="24"><path d="M0 0h24v24H0zm11.75 11.47l-.11-.11z" fill="none"/><path d="M12 6.5c1.38 0 2.5 1.12 2.5 2.5 0 .74-.33 1.39-.83 1.85l3.63 3.63c.98-1.86 1.7-3.8 1.7-5.48 0-3.87-3.13-7-7-7-1.98 0-3.76.83-5.04 2.15l3.19 3.19c.46-.52 1.11-.84 1.85-.84zm4.37 9.6l-4.63-4.63-.11-.11L3.27 3 2 4.27l3.18 3.18C5.07 7.95 5 8.47 5 9c0 5.25 7 13 7 13s1.67-1.85 3.38-4.35L18.73 21 20 19.73l-3.63-3.63z"/></svg>

<svg width="24" height="24" viewBox="0 0 24 24" fill="none" xmlns="http://www.w3.org/2000/svg">
<g clip-path="url(#clip0_147_1866)">
<path d="M12 6.5C13.38 6.5 14.5 7.62 14.5 9C14.5 9.74 14.17 10.39 13.67 10.85L17.3 14.48C18.28 12.62 19 10.68 19 9C19 5.13 15.87 2 12 2C10.02 2 8.24 2.83 6.96 4.15L10.15 7.34C10.61 6.82 11.26 6.5 12 6.5ZM16.37 16.1L11.74 11.47L11.63 11.36L3.27 3L2 4.27L5.18 7.45C5.07 7.95 5 8.47 5 9C5 14.25 12 22 12 22C12 22 13.67 20.15 15.38 17.65L18.73 21L20 19.73L16.37 16.1Z" fill="#323232"/>
</g>
<defs>
<clipPath id="clip0_147_1866">
<rect width="24" height="24" fill="white"/>
</clipPath>
</defs>
</svg>
